X: 2
T: Hill 60
R: reel
M: 4/4
L: 1/8
K: Dmix
ag|:fd ~d2 Adfd|ec ~c2 Gceg|fddc AGAB|cdBd cAGE|
Ddfa gefd|ecca gceg|gaag fd^cd|1 ~e2ag fdde:|2 ~e2ag fddA||
|:~d3f ~g3e|fagf d^cAG|FAdf ~g3e|ceag fdde|
~f2dc (3ABcGE|Ddfa g2fg|gaag fd^cd|1 ~e2ag fddA:|2 ~e2ag fdde||

